assets/images/telegram-white.svg

<svg width="15" height="12" xmlns="http://www.w3.org/2000/svg"><path d="M11.224 11.871a404.507 404.507 0 01-3.266-2.369l-1.805 1.704a.505.505 0 01-.474.121.512.512 0 01-.352-.336c-.441-1.3-1.288-3.858-1.288-3.858S2.227 6.558.846 6.145A.483.483 0 01.5 5.7a.484.484 0 01.316-.467C3.895 4.094 11.428 1.268 13.874.362a.47.47 0 01.465.082.457.457 0 01.151.443c-.461 2.166-1.691 8.196-2.198 10.578a.678.678 0 01-.422.491.696.696 0 01-.646-.085zM4.801 6.809l.98 3.231.218-2.046 5.941-5.358a.162.162 0 00.019-.22.165.165 0 00-.219-.037l-6.939 4.43z" fill="#FFF" fill-rule="evenodd"/></svg>

<?xml version="1.0" encoding="UTF-8"?>
<svg width="15px" height="12px" viewBox="0 0 15 12" version="1.1" xmlns="http://www.w3.org/2000/svg" xmlns:xlink="http://www.w3.org/1999/xlink">
    <!-- Generator: Sketch 46.2 (44496) - http://www.bohemiancoding.com/sketch -->
    <title>telegram-4</title>
    <desc>Created with Sketch.</desc>
    <defs></defs>
    <g id="Page-1" stroke="none" stroke-width="1" fill="none" fill-rule="evenodd">
        <g id="iconmonstr-telegram-4" fill="#FFFFFF">
            <path d="M11.224,11.871 L11.224,11.871 C10.042,11.029 7.958,9.502 7.958,9.502 C7.958,9.502 6.862,10.537 6.153,11.206 C6.027,11.325 5.848,11.371 5.679,11.327 C5.511,11.283 5.383,11.155 5.327,10.991 C4.886,9.691 4.039,7.133 4.039,7.133 C4.039,7.133 2.227,6.558 0.846,6.145 C0.646,6.085 0.507,5.906 0.5,5.7 C0.494,5.493 0.621,5.306 0.816,5.233 C3.895,4.094 11.428,1.268 13.874,0.362 C14.032,0.304 14.21,0.335 14.339,0.444 C14.467,0.553 14.525,0.723 14.49,0.887 C14.029,3.053 12.799,9.083 12.292,11.465 C12.244,11.689 12.085,11.874 11.87,11.956 C11.654,12.037 11.412,12.004 11.224,11.871 Z M4.801,6.809 L5.781,10.04 L5.999,7.994 C5.999,7.994 9.782,4.581 11.94,2.636 C12.003,2.579 12.011,2.483 11.959,2.416 C11.907,2.349 11.811,2.333 11.74,2.379 C9.24,3.975 4.801,6.809 4.801,6.809 L4.801,6.809 Z" id="telegram-4"></path>
        </g>
    </g>
</svg>
